assets/icons/qvision/speaker_notes.svg

<svg xmlns="http://www.w3.org/2000/svg" height="24" viewBox="0 0 24 24" width="24"><path d="M0 0h24v24H0z" fill="none"/><path d="M20 2H4c-1.1 0-1.99.9-1.99 2L2 22l4-4h14c1.1 0 2-.9 2-2V4c0-1.1-.9-2-2-2zM8 14H6v-2h2v2zm0-3H6V9h2v2zm0-3H6V6h2v2zm7 6h-5v-2h5v2zm3-3h-8V9h8v2zm0-3h-8V6h8v2z"/></svg>

<svg width="24" height="24" viewBox="0 0 24 24" fill="none" xmlns="http://www.w3.org/2000/svg">
<g clip-path="url(#clip0_147_4771)">
<path d="M20 2H4C2.9 2 2.01 2.9 2.01 4L2 22L6 18H20C21.1 18 22 17.1 22 16V4C22 2.9 21.1 2 20 2ZM8 14H6V12H8V14ZM8 11H6V9H8V11ZM8 8H6V6H8V8ZM15 14H10V12H15V14ZM18 11H10V9H18V11ZM18 8H10V6H18V8Z" fill="#323232"/>
</g>
<defs>
<clipPath id="clip0_147_4771">
<rect width="24" height="24" fill="white"/>
</clipPath>
</defs>
</svg>
